X:10
T:Elizabeth Kelly's Delight
Z: id:dc-slipjig-9
M:9/8
L:1/8
K:A Dorian
A3 ABA AGE|ABA G2E DEG|A3 ABA AGE|G3 G2E DEG:|!
c2A BAG A3|c2A BAG DEG|c2A BAG A3|G3 G2E DEG:|!